icons/hamburguer-menu.svg

<svg xmlns="http://www.w3.org/2000/svg" width="24" height="24" viewBox="0 0 24 24">
    <path fill="#3A3A47" fill-rule="evenodd" d="M5 16h14c.667 0 1 .332 1 1 0 .62-.287.952-.862.995L19 18H5c-.667 0-1-.333-1-1 0-.619.287-.95.862-.995L5 16h14zm14-5c.667 0 1 .333 1 1s-.333 1-1 1H5c-.667 0-1-.334-1-1.002 0-.669.333-1.001 1-.998zM5 6h14c.667 0 1 .333 1 1 0 .619-.287.95-.862.995L19 8H5c-.667 0-1-.333-1-1 0-.619.287-.95.862-.995L5 6h14z"/>
</svg>

<svg width="24" height="24" viewBox="0 0 24 24" fill="none" xmlns="http://www.w3.org/2000/svg">
<path d="M5 8C4.333 8 4 7.667 4 7C4 6.333 4.333 6 5 6H19C19.667 6 20 6.333 20 7C20 7.667 19.667 8 19 8H5ZM5 18C4.333 18 4 17.667 4 17C4 16.333 4.333 16 5 16H19C19.667 16 20 16.332 20 17C20 17.668 19.667 18 19 18H5ZM5 13C4.333 13 4 12.666 4 11.998C4 11.329 4.333 10.997 5 11H19C19.667 11 20 11.333 20 12C20 12.667 19.667 13 19 13H5Z" fill="#3A3A47"/>
</svg>
